X:1
T:Hymn to Soma
T:Gustav Holst (1874-1934) Op. 26
T:Hymn to Soma
T:© CPDL 2016
T:© CPDL 2016
T:© CPDL 2016
T:© CPDL 2016
T:© CPDL 2016
C:Gustav Holst (1874-1934)
C:Op. 26
Z:© CPDL 2016
%%score [ ( 1 2 ) ( 3 4 ) ] { 5 | ( 6 7 ) }
L:1/8
Q:1/4=112
M:2/4
K:C
V:1 treble-8 transpose=-12 nm="Tenor" snm="T."
V:2 treble-8 transpose=-12 
V:3 bass nm="Bass" snm="B."
V:4 bass 
V:5 treble nm="Piano" snm="Pno."
V:6 bass 
V:7 bass 
V:1
"^Allegretto" z4 | z4 | z4 | z2!mf! c2 | B>c B_A | G>_A GA | G_A Bc | d2 (gf) | _e>f ed | c>d c_e | %10
w: |||The|thoughts of men are|ma- ni- fold And|di- verse are their|ways The *|doc- tor seeks the|in- va- lid The|
 dc B_A | G3 z |!f! d2 g2 | d2 g2 | f>[fg] [fa]g | fe dc | d4 | [df]3 [df] | d2 [dg-]2 | %19
w: Brah- man, one who|prays.|Flow on|In- du,|Flow ye on O|ho- ly stream We|pour|thee for|In- dra.|
!mf! [dg]3 z | z4 | z4 |!p! !tenuto![Bd]2 .[Bd].[Bd] | .[Bd].[Bd] !tenuto![Bd]2 | %24
w: _|||La la la|la la la|
 !tenuto![Bd]2 .[Bd].[Bd] | .[Bd].[Bd] !tenuto![df]2 | !tenuto![cf]2 .[cf].[cf] | %27
w: La la la|la la la|La la la|
 .[Ac].[Ac] (([Ac]2 |!>(! [^GB]4-)) | [GB]4- | [GB]3!>)! z | z4 |!mf! B2 ^d2 | B2 ^d2 | %34
w: la, la, la.|_||||Flow on|In- du,|
"^cresc." [B^c]>[B^d] [B^e][B^f] | [B^e][B^d] [Be][B^c] | [B^e]2 [B^d]2- | [Bd]3"^dim." [B^d] | %38
w: Flow ye on O|ho- ly stream We|pour thee|_ for|
 [c_e]2 [c=d-]2 | [cd]3 z |!mf! c4 | B>c B_A | G>_A GA | G_A Bc | d2 (gf) | _e>f ed | c>d c_e | %47
w: In- dra.|_|A|po- et I, my|dad's a leech, My|moth- er grinds the|corn In _|hope of win- ning|wealth and fame We|
 dc B_A | G3 z |!f! d2 g2 | d2 g2 | f>[fg] [fa]g | fe dc | d4 | [df]3 [df] | d2 [dg-]2 | [dg]3 z | %57
w: rise to work each|morn.|Flow on|In- du,|Flow ye on O|ho- ly stream We|pour|thee for|In- dra.|_|
 z4 | z4 |!p!!mf! !tenuto![Bd]2 .[Bd].[Bd] | .[Bd].[Bd] !tenuto![Bd]2 | !tenuto![Bd]2 .[Bd].[Bd] | %62
w: ||La la la|la a la|La la la|
 .[Bd].[Bd] !tenuto![df]2 | !tenuto![cf]2 .[cf].[cf] | .[Ac].[Ac] (([Ac]2 |!>(! [^GB]4-)) | B4- | %67
w: la la la|La la la|la la la.|_||
 [GB]3!>)! z | z4 |!mf! B2 ^d2 | B2 ^d2 |"^cresc." [B^c]>[B^d] [B^e][B^f] | [B^e][B^d] [Be][B^c] | %73
w: ||Flow on|In- du,|Flow ye on O|ho- ly stream We|
 [B^e]2 [B^d]2- | [Bd]3"^dim." [B^d] | [c_e]2 [c=d]2- | d3!pp! [cd] | [Be]2 d2- | [Bd]4- | %79
w: pour thee|_ for|In- dra,|_ for|In- dra|_|
 [Bd] z z2 | z2 z!pp! A | GA B[Bd] |"^morendo" [cf]4- | [cf]4 | [Bd] z z2 || %85
w: ||pour thee forth for|In-||dra.|
V:2
 x4 | x4 | x4 | x4 | x4 | x4 | x4 | x4 | x4 | x4 | x4 | x4 | x4 | x4 | x4 | x4 | x4 | x4 | d2 x2 | %19
w: |||||||||||||||||||
 x4 | x4 | x4 | x4 | x4 | x4 | x4 | x4 | x4 | x4 | x4 | x4 | x4 | x4 | x4 | x4 | x4 | x4 | x4 | %38
w: |||||||||||||||||||
 x4 | x4 | x4 | x4 | x4 | x4 | x4 | x4 | x4 | x4 | x4 | x4 | x4 | x4 | x4 | x4 | x4 | x4 | x4 | %57
w: |||||||||||||||||||
 x4 | x4 | x4 | x4 | x4 | x4 | x4 | x4 | x4 | G4- | x4 | x4 | x4 | x4 | x4 | x4 | x4 | x4 | x4 | %76
w: |||||||||||||||||||
 c3 x | x2 B2- | x4 | x4 | x3 A | GA x2 | x4 | x4 | x4 || %85
w: ||||We|||||
V:3
!p! z4 | z4 |!p! !tenuto![G,,D,]2 .[G,,D,].[_A,,_E,] | .[G,,D,].[G,,D,] !tenuto![_A,,_E,]2 | %4
w: ||La la la|la la la|
w: ||||
 !tenuto![G,,D,]2 .[G,,D,].[_A,,_E,] | .[G,,D,].[G,,D,] !tenuto![G,,D,]2 | %6
w: La la la|la la la|
w: ||
 !tenuto![G,,D,]2 .[G,,D,].[_A,,_E,] | .[G,,D,].[G,,D,] !tenuto![G,B,]2 | %8
w: La la, la|la ,la Ia|
w: ||
 !tenuto![_A,B,]2 .[A,B,].[A,B,] | .[_A,C].[A,C] !tenuto![A,C]2 | (B,C) x2 | [B,D]3 z | %12
w: La la la|la la la||la|
w: ||||
!f! [G,B,]2 [B,D]2 | [G,B,]2 [B,D]2 | [_B,D]>[B,D] [B,D][B,D] | [A,C][A,C] [F,A,][F,A,] | [G,B,]4 | %17
w: Flow on|In- du,|Flow ye on O|ho- ly stream We|pour|
w: |||||
 [G,_B,]3 [G,B,] | [G,=B,]2 [G,B,]2- | [G,B,]3 z | z4 |!mf! (B,3 A,) | ^G,>A, G,F, | E,>F, E,F, | %24
w: thee for|In- dra.|_||Sharp _|ar- rows doth the|smith- y make With|
w: |||||||
 E,F, ^G,A, | B,2 (CB,) | A,>B, A,G, | F,>G, F,E, | D,C, B,,A,, | ^G,,4- | G,,3 z | z4 | %32
w: fea- thers, reeds and|canes, But _|first he seeks a|wealth- y man To|pay him for his|pains!|_||
w: ||||||||
!mf! [^D,^G,]2 [G,B,]2 | [^D,^G,]2 [G,B,]2 |"^cresc." ^E,>^F, ^G,^A, | ^G,^F, G,^E, | ^F,2 F,2- | %37
w: Flow on|In- du,|Flow ye on O|ho- ly stream We|pour thee|
w: |||||
 F,3"^dim." ^F, | ^F,2 F,2- | F,3 z | z4 |!p! !tenuto![G,,D,]2 .[G,,D,].[_A,,_E,] | %42
w: _ for|In- dra.|_||La la la|
w: |||||
 .[G,,D,].[G,,D,] !tenuto![G,,D,]2 | !tenuto![G,,D,]2 .[G,,D,].[_A,,_E,] | %44
w: la la la|La la la|
w: ||
 .[G,,D,].[G,,D,] !tenuto![G,B,]2 | !tenuto![_A,B,]2 .[A,B,].[A,B,] | %46
w: la la la|La la la|
w: ||
 .[_A,C].[A,C] !tenuto![A,C]2 | B,C .D.D | [B,D]3 z |!f! [G,B,]2 [B,D]2 | [G,B,]2 [B,D]2 | %51
w: la la la||la.|Flow on|In- du,|
w: |||||
 [_B,D]>[B,D] [B,D][B,D] | [A,C][A,C] [F,A,][F,A,] | [G,B,]4 | [G,_B,]3 [G,B,] | %55
w: Flow ye on O|ho- ly stream We|pour|thee for|
w: ||||
 [G,=B,]2 [G,B,-]2 | [G,B,]3 z | z4 |!mf! (B,3 A,) | ^G,>A, G,F, | E,>F, E,F, | E,F, ^G,A, | %62
w: In- dra.|_||The _|horse would draw an|ea- sy car, The|frog doth yearn for|
w: |||||||
 B,2 (CB,) | A,>B, A,G, | F,>G, F,E, | D,C, B,,A,, | ^G,,4- | G,,3 z | z4 |!mf! [^D,^G,]2 [G,B,]2 | %70
w: rain The *|lad is look- ing|for a mate The|las- sie wants a|swain!|_||Flow on|
w: ||||||||
 [^D,^G,]2 [G,B,]2 |"^cresc." ^E,>^F, ^G,^A, | ^G,^F, G,^E, | ^F,2 F,2- | F,3"^dim." ^F, | %75
w: In- du,|Flow ye on O|ho- ly stream We|pour thee|_ for|
w: |||||
 ^F,2 F,2- | F,3!pp! ^F, | G,2 G,2- | G,4- | G, z!pp! z2 | z2!pp! z A, | G,G, G,G, | %82
w: In- dra,|_ for|In- dra.|_||||
w: |||||We|pour thee forth for|
"^morendo" A,4- | A,4 | G, z z2 || %85
w: |||
w: In-||dra.|
V:4
 !tenuto!G,,2 .G,,._A,, | .G,,.G,, !tenuto!_A,,2 | x4 | x4 | x4 | x4 | x4 | x4 | x4 | x4 | %10
w: La la la|la la la|||||||||
 _A,2 .[A,D].[B,D] | x4 | x4 | x4 | x4 | x4 | x4 | x4 | x4 | x4 | x4 | x4 | x4 | x4 | x4 | x4 | %26
w: La la la||||||||||||||||
 x4 | x4 | x4 | x4 | x4 | x4 | x4 | x4 | x4 | x4 | x4 | x4 | x4 | x4 | x4 | x4 | x4 | x4 | x4 | %45
w: |||||||||||||||||||
 x4 | x4 | _A,2 .A,.=B, | x4 | x4 | x4 | x4 | x4 | x4 | x4 | x4 | x4 | x4 | x4 | x4 | x4 | x4 | %62
w: ||La la la|||||||||||||||
 x4 | x4 | x4 | x4 | x4 | x4 | x4 | x4 | x4 | x4 | x4 | x4 | x4 | x4 | x3 z | z4 | z4 | z2 z G,, | %80
w: |||||||||||||||||We|
 F,,G,, A,,C, | E,2 D, z | z4 | z4 | x4 || %85
w: pour thee forth for|In- dra.||||
V:5
"^Allegretto" z4 | z4 | z4 | z4 | z4 | z4 | z4 | z4 | z4 | z4 | z4 | z4 |!f! [G,B,D]2 [B,DG]2 | %13
 [G,B,D]2 [B,DG]2 | [_B,DF]>[B,DFG] [B,DFA][B,DG] | [A,CF][A,CE][A,D][A,C] | [B,D]4 | %17
 [_B,DF]3 [B,DF] | [=B,D]2 [B,DG]2- |!>(! [B,DG]3 z | z4!>)! | z4 | z4 | z4 | z4 | z4 | z4 | z4 | %28
 z4 | z4 |!pp! [^D,^G,B,]4- | [D,G,B,]4 |!mf! [^D,^G,B,]2 [G,B,^D]2 | [^D,^G,B,]2 [G,B,^E]2 | %34
"^cresc." ([^E,B,^C]>[^F,B,^D][^G,B,^E])[^A,B,^F] | [^G,B,^E][^F,B,^D][G,B,E][^E,B,^C] | %36
 [^F,B,^E]2 [F,B,^D]2- | [F,B,D]3"^dim." [^F,B,^D] | [^F,C_E]2 [F,C=D]2- | [F,CD]3 z | z4 | z4 | %42
 z4 | z4 | z4 | z4 | z4 | z4 | z4 |!f! [G,B,D]2 [B,DG]2 | [G,B,D]2 [B,DG]2 | %51
 [_B,DF]>[B,DFG] [B,FA][A,DG] | [A,CF][A,CE][A,D][A,C] | [B,D]4 | [_B,DF]3 [B,DF] | %55
 [=B,D]2!>(! [B,DG]2- | [B,DG]3 z | z4 | z4!>)! | z4 | z4 | z4 | z4 | z4 | z4 | z4 | z4 | %67
!pp! [^D,^G,B,]4- | [D,G,B,]4 |!mf! [^D,^G,B,]2 [G,B,^D]2 | [^D,^G,]2 [G,B,^D]2 | %71
"^cresc." ([^E,B,^C]>[^F,B,^D][^G,B,^E])[^A,B,^F] | [^G,B,^E][^F,B,^D][G,B,E][^E,B,^C] | %73
 [^F,B,^E]2 [F,B,^D]2- | [F,B,D]3"^dim." [^F,B,^D] | [^F,C_E]2 [F,C=D]2- | [F,CD]3 z | %77
!pp! .[Bdg]>.[Bda] .[Bdg].[Be] | .[GBd]>.[GBe].[GBd].[GBe] | .[GBd].[GBe].[Bdf].[Bdg] | ([Acfa]4 | %81
 [GBg]) z z2 | z2 .a.[ab] | .[ac'].[ac'd'].[ac'e'].[ac'f'] | [gbd'g'] z z2 || %85
V:6
!p! .[G,,,G,,] z z2 | z4 | .[G,,,G,,] z z2 | z4 | .[D,B,] z z2 | z4 | z4 | z4 | z4 | z4 | z4 | %11
!p! G,,>"^cresc."D,G,.D, | G,,>D,G,.D, | G,,>D,G,.D, | G,,>D,F,.D, | G,,>D,F,.D, | G,,>D,G,.D, | %17
 G,,>D,F,.D, | G,,>D,G,.D, | G,,>D,G,.D, | G,,>D,G,.A, | .B, z z2 | z4 | z4 | z4 | z4 | z4 | z4 | %28
 z4 | z4 | ^G,,,>^D,,^G,,.D,, | ^G,,,>^D,,^G,,.D,, | ^G,,,>^D,,^G,,.D,, | ^G,,,>^D,,^G,,D,, | %34
 ^G,,,>^C,,^G,,.C,, | ^G,,,>^C,,^G,,.C,, | ^G,,,>^D,,^G,,.D,, | ^G,,,>^D,,^G,,D,, | %38
 A,,,>=D,,A,,.D,, | A,,>D,A,.D, | .C z z2 | z4 | z4 | z4 | z4 | z4 | z4 | z4 | %48
!p! G,,>"^cresc."D,G,.D, | G,,>D,G,D, | G,,>D,G,.D, | G,,>D,F,.D, | G,,>D,F,.D, | G,,>D,G,.D, | %54
 G,,>D,F,.D, | G,,>D,G,D, | G,,>D,G,.D, | G,,>D,G,.A, | .B, z z2 | z4 | z4 | z4 | z4 | z4 | z4 | %65
 z4 | z4 | ^G,,,>^D,,^G,,D,, | ^G,,,>^D,,^G,,D,, | ^G,,,>^D,,^G,,D,, | ^G,,,>^D,,^G,,D,, | %71
 ^G,,,>^C,,^G,,C,, | ^G,,,>^C,,^G,,.C,, | ^G,,,>^D,,^G,,.D,, | ^G,,,>^D,,^G,,D,, | %75
 A,,,>=D,,A,,.D,, | A,,>D,A,.D, | G,,>D,G,.D, | G,,>D,G,.D, | G,,>D,G,.D, | F,,>C,F,C, | %81
 G,,>D,G,D, |"^morendo" F,,>C,F,C, | F,>CF.C | [GBd] z z2 || %85
V:7
 x4 | x4 | x4 | x4 | .[G,,,G,,] x3 | x4 | x4 | x4 | x4 | x4 | x4 | x4 | x4 | x4 | x4 | x4 | x4 | %17
 x4 | x4 | x4 | x4 | x4 | x4 | x4 | x4 | x4 | x4 | x4 | x4 | x4 | x4 | x4 | x4 | x4 | x4 | x4 | %36
 x4 | x4 | x4 | x4 | x4 | x4 | x4 | x4 | x4 | x4 | x4 | x4 | x4 | x4 | x4 | x4 | x4 | x4 | x4 | %55
 x4 | x4 | x4 | x4 | x4 | x4 | x4 | x4 | x4 | x4 | x4 | x4 | x4 | x4 | x4 | x4 | x4 | x4 | x4 | %74
 x4 | x4 | x4 | x4 | x4 | x4 | x4 | x4 | x4 | x4 | x4 || %85

